app/images/icons/cart.svg

<?xml version="1.0" encoding="UTF-8"?>
<svg xmlns="http://www.w3.org/2000/svg" xmlns:xlink="http://www.w3.org/1999/xlink" width="17pt" height="17pt" viewBox="0 0 17 17" version="1.1">
<g id="surface1">
<path style=" stroke:none;fill-rule:nonzero;fill:rgb(0%,0%,0%);fill-opacity:1;" d="M 5.476562 10.992188 C 5.480469 10.992188 5.480469 10.988281 5.480469 10.988281 L 14.507812 10.988281 C 14.730469 10.988281 14.925781 10.84375 14.988281 10.628906 L 16.980469 3.65625 C 17.023438 3.507812 16.992188 3.34375 16.898438 3.21875 C 16.804688 3.09375 16.660156 3.023438 16.5 3.023438 L 4.328125 3.023438 L 3.972656 1.417969 C 3.921875 1.191406 3.71875 1.03125 3.484375 1.03125 L 0.496094 1.03125 C 0.222656 1.03125 0 1.253906 0 1.527344 C 0 1.800781 0.222656 2.027344 0.496094 2.027344 L 3.085938 2.027344 C 3.148438 2.308594 4.789062 9.691406 4.886719 10.117188 C 4.355469 10.347656 3.984375 10.875 3.984375 11.488281 C 3.984375 12.3125 4.65625 12.980469 5.476562 12.980469 L 14.507812 12.980469 C 14.785156 12.980469 15.007812 12.757812 15.007812 12.484375 C 15.007812 12.210938 14.785156 11.984375 14.507812 11.984375 L 5.476562 11.984375 C 5.203125 11.984375 4.980469 11.761719 4.980469 11.488281 C 4.980469 11.214844 5.203125 10.992188 5.476562 10.992188 Z M 15.839844 4.019531 L 14.132812 9.992188 L 5.878906 9.992188 L 4.550781 4.019531 Z M 15.839844 4.019531 "/>
<path style=" stroke:none;fill-rule:nonzero;fill:rgb(0%,0%,0%);fill-opacity:1;" d="M 4.980469 14.476562 C 4.980469 15.300781 5.652344 15.96875 6.472656 15.96875 C 7.296875 15.96875 7.96875 15.300781 7.96875 14.476562 C 7.96875 13.652344 7.296875 12.980469 6.472656 12.980469 C 5.652344 12.980469 4.980469 13.652344 4.980469 14.476562 Z M 6.472656 13.976562 C 6.75 13.976562 6.972656 14.203125 6.972656 14.476562 C 6.972656 14.75 6.75 14.972656 6.472656 14.972656 C 6.199219 14.972656 5.976562 14.75 5.976562 14.476562 C 5.976562 14.203125 6.199219 13.976562 6.472656 13.976562 Z M 6.472656 13.976562 "/>
<path style=" stroke:none;fill-rule:nonzero;fill:rgb(0%,0%,0%);fill-opacity:1;" d="M 12.019531 14.476562 C 12.019531 15.300781 12.691406 15.96875 13.511719 15.96875 C 14.335938 15.96875 15.007812 15.300781 15.007812 14.476562 C 15.007812 13.652344 14.335938 12.980469 13.511719 12.980469 C 12.691406 12.980469 12.019531 13.652344 12.019531 14.476562 Z M 13.511719 13.976562 C 13.789062 13.976562 14.011719 14.203125 14.011719 14.476562 C 14.011719 14.75 13.789062 14.972656 13.511719 14.972656 C 13.238281 14.972656 13.015625 14.75 13.015625 14.476562 C 13.015625 14.203125 13.238281 13.976562 13.511719 13.976562 Z M 13.511719 13.976562 "/>
</g>
</svg>

<svg xmlns="http://www.w3.org/2000/svg" width="17pt" height="17pt" viewBox="0 0 17 17"><path d="M5.477 10.992c.003 0 .003-.004.003-.004h9.028a.498.498 0 00.48-.36l1.992-6.972a.502.502 0 00-.082-.437.49.49 0 00-.398-.196H4.328l-.355-1.605a.498.498 0 00-.489-.387H.496A.497.497 0 000 1.527a.5.5 0 00.496.5h2.59c.062.282 1.703 7.664 1.8 8.09-.53.23-.902.758-.902 1.371 0 .825.672 1.492 1.493 1.492h9.03a.498.498 0 100-.996h-9.03a.497.497 0 010-.992zM15.84 4.02l-1.707 5.972H5.879L4.55 4.02zM4.98 14.477a1.495 1.495 0 002.989 0 1.5 1.5 0 00-1.496-1.497 1.5 1.5 0 00-1.493 1.497zm1.493-.5a.498.498 0 11.005.997.498.498 0 01-.005-.997zm5.547.5a1.495 1.495 0 002.988 0 1.5 1.5 0 00-1.496-1.497c-.82 0-1.492.672-1.492 1.497zm1.492-.5a.498.498 0 11.005.997.498.498 0 01-.005-.997zm0 0"/></svg>
